X: 20111
Q: "Mod.o"
M: C
L: 1/8
K: D
d2a2 f>gad | f2a>b a3d |\
~g>ab>g ~f>ga>f |
{a}gfed {f}e2 (de/f/) |\
(fd)(eB) (dA)(BF) | E2e>f e2fa |
(ba)(fb) (ad)(bd) | f2a>b {b}a2(gf) |\
~g>ab>g  ~f>ga>f | {a}gf {f}ed {f}He2 (de/f/) |\


